.svelte-kit/output/client/library/social-视频号.svg

<svg width="48" height="48" viewBox="0 0 48 48" fill="none" xmlns="http://www.w3.org/2000/svg">
<path d="M16.5348 38.9546C18.4095 39.1421 19.8246 38.1819 20.757 37.0722C21.6602 35.9973 22.276 34.6126 22.7029 33.3484C23.5551 30.8245 23.8821 28.0717 23.8821 27.2165C23.8821 26.8932 23.8115 26.5622 23.7711 26.3816C23.718 26.1435 23.6451 25.867 23.5589 25.5678C23.3856 24.9662 23.1395 24.207 22.8359 23.3571C22.2296 21.6594 21.3711 19.5355 20.3585 17.5103C19.3631 15.5193 18.1472 13.4768 16.7899 12.0546C15.5414 10.7465 13.3995 9.22166 10.9876 10.4277C9.77447 11.0344 9.10089 12.1738 8.71731 13.2129C8.3224 14.2826 8.12223 15.5417 8.04244 16.8397C7.88209 19.4479 8.18663 22.6033 8.78317 25.6332C9.37984 28.6638 10.2952 31.704 11.4306 34.0688C11.9958 35.2459 12.6552 36.34 13.419 37.1882C14.1587 38.0096 15.1979 38.8209 16.5348 38.9546Z" stroke="#F99D3B" stroke-width="4"/>
<path d="M31.3474 38.9546C29.4726 39.1421 28.0575 38.1819 27.1251 37.0722C26.2219 35.9973 25.6061 34.6126 25.1792 33.3484C24.3271 30.8245 24 28.0717 24 27.2165C24 26.8932 24.0706 26.5622 24.111 26.3816C24.1642 26.1435 24.2371 25.867 24.3233 25.5678C24.4965 24.9662 24.7427 24.207 25.0462 23.3571C25.6526 21.6594 26.5111 19.5355 27.5236 17.5103C28.5191 15.5193 29.7349 13.4768 31.0923 12.0546C32.3407 10.7465 34.4827 9.22166 36.8945 10.4277C38.1077 11.0344 38.7813 12.1738 39.1648 13.2129C39.5597 14.2826 39.7599 15.5417 39.8397 16.8397C40 19.4479 39.6955 22.6033 39.099 25.6332C38.5023 28.6638 37.5869 31.704 36.4515 34.0688C35.8864 35.2459 35.2269 36.34 34.4631 37.1882C33.7234 38.0096 32.6842 38.8209 31.3474 38.9546Z" stroke="#F99D3B" stroke-width="4"/>
</svg>

<svg width="48" height="48" fill="none" xmlns="http://www.w3.org/2000/svg"><path d="M16.535 38.955c1.875.187 3.29-.773 4.222-1.883.903-1.075 1.519-2.46 1.946-3.724.852-2.523 1.18-5.276 1.18-6.131 0-.324-.072-.655-.112-.835a14.144 14.144 0 0 0-.212-.814c-.173-.602-.42-1.361-.723-2.21a54.45 54.45 0 0 0-2.477-5.848c-.996-1.99-2.212-4.033-3.57-5.455-1.248-1.309-3.39-2.833-5.801-1.627-1.214.606-1.887 1.746-2.27 2.785-.396 1.07-.596 2.329-.676 3.627-.16 2.608.145 5.763.741 8.793.597 3.03 1.512 6.071 2.648 8.436.565 1.177 1.224 2.271 1.988 3.12.74.82 1.779 1.632 3.116 1.766ZM31.347 38.955c-1.874.187-3.29-.773-4.222-1.883-.903-1.075-1.519-2.46-1.946-3.724C24.327 30.825 24 28.072 24 27.217c0-.324.07-.655.111-.835.053-.239.126-.515.212-.814.174-.602.42-1.361.723-2.21a54.49 54.49 0 0 1 2.478-5.848c.995-1.99 2.21-4.033 3.568-5.455 1.249-1.309 3.39-2.833 5.803-1.627 1.213.606 1.886 1.746 2.27 2.785.395 1.07.595 2.329.675 3.627.16 2.608-.145 5.763-.741 8.793-.597 3.03-1.512 6.071-2.647 8.436-.566 1.177-1.225 2.271-1.989 3.12-.74.82-1.779 1.632-3.116 1.766Z" stroke="#F99D3B" stroke-width="4"/></svg>
